icons/archive-fill.svg

<svg xmlns="http://www.w3.org/2000/svg" width="24" height="24" fill="none"><g clip-path="url(#a)"><g><path fill="#121212" d="M3 10H21V20.004C21 20.554 20.555 21 20.007 21H3.993C3.86238 20.9999 3.73307 20.974 3.61246 20.9239C3.49184 20.8737 3.3823 20.8003 3.29007 20.7078C3.19785 20.6153 3.12477 20.5055 3.07499 20.3848C3.02522 20.264 2.99974 20.1346 3 20.004V10ZM9 12V14H15V12H9ZM2 4C2 3.448 2.455 3 2.992 3H21.008C21.556 3 22 3.444 22 4V8H2V4Z"/></g></g><defs><clipPath id="a"><rect width="24" height="24" fill="white"/></clipPath></defs></svg>

<svg width="24" height="24" fill="none" xmlns="http://www.w3.org/2000/svg"><g clip-path="url(#a)"><path d="M3 10h18v10.004c0 .55-.445.996-.993.996H3.993A.994.994 0 0 1 3 20.004V10Zm6 2v2h6v-2H9ZM2 4c0-.552.455-1 .992-1h18.016c.548 0 .992.444.992 1v4H2V4Z" /></g><defs><clipPath id="a"><path fill="#fff" d="M0 0h24v24H0z"/></clipPath></defs></svg>
